X:171
T: Am Weihnachtsabend
N: A0533
O: Europa, Mitteleuropa, Deutschland
N: Speiersches Gsgb 1617. fol 17b.
R: Romanze, Ballade, Lied, religioeses Lied
M: 4/1
L: 1/2
K: G
G | G2d2d2d2 | c2_B2A2z
c | c2c2c2c2 | _BdcBA2z
d | d2dc2_BA2 | G2z
G | A2_B2c2c2 | _BdcBA2z
d | d2dc2_BA2 | G2z

